X:121
T: Der Appenzeller Kuhreyen
N: A0484A
O: Europa, Mitteleuropa, Deutschland
N: Rhaw Bicinia 1545 II No. 84.
R: Romanze, Ballade, Lied
M: 4/2
L: 1/4
K: F
F4A3B | c2c2c4 | c2c4BA | B2c2G4 | c4A2 | B4G2 | A4F2 | G2G2E2
F2E2C4 | F3GAB | c4B2G2 | c4B2G2 | c4B2G2 | A2F2G2E2 | F2EDC2
F3GAB | c4A2 | c4A2 | c4A2 | B2G2A2 | F2G4 | E2F2G2 | C4z2
F3GAB | c3BGA | BAF4z2 | c3BGA | BAF4z2 | c3BGA | B2A2F4z2F2
GAB2GBA2 | F4z4 | c2A2F2 | G2E2C2 | c2A2F2 | G2E2C2 | c2GABA | F4z2
F2GBA2 | F2c2B2 | G2A2F2 | c4B2 | G2A2F2 | G2E2C2 | c3BA2 | G4F2z2 |
F4F2 | F3GAB | c4c2 | c4BA | B2c2A4F4 | z2c2B2G2 | A2F2G2E2 | F8 |
z2c2B2G2 | A2F2GABA | F2G2E2C2 | c2B2GABA | F2G2E4 | C4z2
C2 | F4z2C2 | F4z2C2 | F4z2F2 | c4z2F2 | c4z2F2 | c4z2
F2 | FGABc2 | B2G2A2F2 | c4A2F2 | G2E2C2c2 | cBA2F2A2 | G4F4 |
z2F2A3B | c2c2c4 | c2c4BA | G2c4B2 | G2c2B2G2 | A2F2G2E2 | C2c2B2G2 |
A2F2G2E2 | C4z2c2 | B2G2A2F2- | F2A2G4 | F8

